static/icons/companies/github.svg

<svg width="24" height="24" viewBox="0 0 24 24" fill="none" xmlns="http://www.w3.org/2000/svg">
<g clip-path="url(#clip0_1507_55)">
<path fill-rule="evenodd" clip-rule="evenodd" d="M11.9672 1C5.90263 1 1 6.04167 1 12.2789C1 17.2646 4.14128 21.485 8.49908 22.9787C9.04392 23.091 9.24349 22.736 9.24349 22.4374C9.24349 22.1759 9.22553 21.2796 9.22553 20.3458C6.17471 21.0182 5.53941 19.0013 5.53941 19.0013C5.04912 17.6941 4.32267 17.3581 4.32267 17.3581C3.32414 16.6672 4.39541 16.6672 4.39541 16.6672C5.50304 16.7419 6.08424 17.825 6.08424 17.825C7.06459 19.5428 8.64433 19.0574 9.27986 18.7586C9.37055 18.0303 9.66126 17.5261 9.96994 17.2461C7.53669 16.9846 4.97661 16.0136 4.97661 11.6812C4.97661 10.4488 5.41212 9.44044 6.1022 8.65623C5.99333 8.37619 5.61192 7.21821 6.21131 5.66835C6.21131 5.66835 7.13733 5.36952 9.22531 6.8261C10.1192 6.57921 11.0411 6.45362 11.9672 6.45256C12.8932 6.45256 13.8372 6.58342 14.7089 6.8261C16.7971 5.36952 17.7231 5.66835 17.7231 5.66835C18.3225 7.21821 17.9409 8.37619 17.832 8.65623C18.5403 9.44044 18.9578 10.4488 18.9578 11.6812C18.9578 16.0136 16.3978 16.9658 13.9463 17.2461C14.3459 17.6008 14.6907 18.273 14.6907 19.3375C14.6907 20.85 14.6728 22.0638 14.6728 22.4372C14.6728 22.736 14.8726 23.091 15.4172 22.9789C19.775 21.4847 22.9163 17.2646 22.9163 12.2789C22.9342 6.04167 18.0136 1 11.9672 1Z" fill="#121315"/>
</g>
<defs>
<clipPath id="clip0_1507_55">
<rect width="22" height="22" fill="white" transform="translate(1 1)"/>
</clipPath>
</defs>
</svg>

<svg xmlns="http://www.w3.org/2000/svg" width="24" height="24" fill="none"><path fill="#121315" fill-rule="evenodd" d="M11.967 1C5.903 1 1 6.042 1 12.279c0 4.986 3.141 9.206 7.5 10.7.544.112.743-.243.743-.542 0-.261-.017-1.157-.017-2.091C6.175 21.018 5.539 19 5.539 19c-.49-1.307-1.216-1.643-1.216-1.643-.999-.69.072-.69.072-.69 1.108.074 1.69 1.157 1.69 1.157.98 1.718 2.56 1.232 3.195.934.09-.729.381-1.233.69-1.513-2.433-.261-4.993-1.232-4.993-5.565 0-1.232.435-2.24 1.125-3.025-.109-.28-.49-1.438.11-2.988 0 0 .925-.298 3.013 1.158a10.342 10.342 0 0 1 2.742-.373c.926 0 1.87.13 2.742.373 2.088-1.456 3.014-1.158 3.014-1.158.6 1.55.218 2.708.109 2.988.708.784 1.126 1.793 1.126 3.025 0 4.333-2.56 5.285-5.012 5.565.4.355.745 1.027.745 2.092 0 1.512-.018 2.726-.018 3.1 0 .298.2.653.744.54 4.358-1.493 7.5-5.713 7.5-10.7C22.933 6.043 18.013 1 11.966 1" clip-rule="evenodd"/></svg>
